X:50
T: Is Maith le Nora
S: "Music from Ireland 2" (Bulmer & Sharpley)
Z: B.Black
R: slide
M: 12/8
L: 1/8
K: D
A2B A2F D3 F2G|A2B AGF G3 B3|A2B A2F D2E D2F|\
E2D E2F G3 B3 :|
AFA d2A BGB d2B|AFA d2A B3 d3|AFA d2A BGB d2F|\
E2D E2F G3 B3 :|
